X:21098 
T:JACKY LATIN (REEL)
B:DMI.0537
Z:Nordberg/Black
N:This tune appears in many of the late 18th - 
early 19th Century collections. Must have been a
big hit back in the day.
R:reel
%Q:1/4=180
M:C
L:1/8
K:D
Ac|dAFA DAFA|dFAG A2 Ac|dAFA DAFA|GFEF G2 Ac|
dAFA DAFA|dAFG A2 Ac|dBcA BGAF|GFEF G2||
AF|DFAc BGAF|DFAB A2AF|DFAc BGAF|GFEF G2FE|
DFAc BGAF|DFAB A2 Ac|dBcA BGAF|GFEF G2||
AG|FD AD BDAD|FD AB A2AG|FD AD BDAD|GFEF G2AG|
FD AD BDAD|FD AB A2 Ac|dBcA BGAF|GFEF G4|]

%%%

